X:1
T:Just A Closer Walk With Thee
C:Unknown
M:4/4
L:1/4
K:C
 "C" G3 ^G | A E G_G| "G7" (F4|F3)z| d3 c | B G AB| "C" A/2- G/2 G3-| G3 z|
w: Just a clo-ser walk with thee _ Grant it Je-sus is my plea
 e3 g | e/2 "C7" c3/2 dc|  "F" c4-| "F#dim" c2 cA|"C" G3 G | "Dm7" G2 "G7" G/2 G3/2| "C" (G4|G3) |
w: Dai-ly walk-ing close to Thee _ let it be. dear Lord, let it be
